Newaita-dark/actions/scalable/code-context.svg

<?xml version="1.0" encoding="UTF-8"?>
<svg xmlns="http://www.w3.org/2000/svg" xmlns:xlink="http://www.w3.org/1999/xlink" width="512pt" height="512pt" viewBox="0 0 512 512" version="1.1">
<g id="surface1">
<path style=" stroke:none;fill-rule:nonzero;fill:rgb(47.058824%,56.470591%,61.176473%);fill-opacity:1;" d="M 169.347656 46.335938 C 122.441406 46.335938 84.675781 84.101562 84.675781 131.011719 L 84.675781 220.980469 C 84.675781 236.855469 58.214844 236.855469 42.335938 236.855469 C 36.472656 236.855469 31.753906 246.296875 31.753906 258.023438 C 31.753906 269.75 36.472656 279.191406 42.335938 279.191406 C 58.214844 279.191406 84.675781 279.191406 84.675781 295.070312 L 84.675781 385.035156 C 84.675781 431.945312 122.441406 469.710938 169.347656 469.710938 L 190.519531 469.710938 C 196.382812 469.710938 201.101562 460.269531 201.101562 448.542969 C 201.101562 436.816406 196.382812 427.375 190.519531 427.375 C 190.511719 427.375 190.503906 427.375 190.5 427.375 L 169.347656 427.375 C 145.894531 427.375 127.011719 408.492188 127.011719 385.035156 L 127.011719 295.070312 C 127.011719 276.546875 124.367188 258.023438 105.84375 258.023438 C 124.367188 258.023438 127.011719 239.5 127.011719 220.980469 L 127.011719 131.011719 C 127.011719 107.558594 145.894531 88.675781 169.347656 88.675781 L 190.519531 88.675781 C 196.382812 88.675781 201.101562 79.234375 201.101562 67.507812 C 201.101562 55.777344 196.382812 46.335938 190.519531 46.335938 Z M 338.699219 46.335938 C 332.835938 46.335938 328.113281 55.777344 328.113281 67.507812 C 328.113281 79.234375 332.835938 88.675781 338.699219 88.675781 L 359.867188 88.675781 C 383.324219 88.675781 402.203125 107.558594 402.203125 131.011719 L 402.203125 220.980469 C 402.40625 237.207031 404.71875 257.726562 423.375 258.023438 C 403.652344 259.457031 402.253906 279.554688 402.203125 295.070312 L 402.203125 385.035156 C 402.203125 408.492188 383.324219 427.375 359.867188 427.375 L 338.71875 427.375 C 338.710938 427.375 338.707031 427.375 338.699219 427.375 C 332.835938 427.375 328.113281 436.816406 328.113281 448.542969 C 328.113281 460.269531 332.835938 469.710938 338.699219 469.710938 L 359.867188 469.710938 C 406.777344 469.710938 444.542969 431.945312 444.542969 385.035156 L 444.542969 295.070312 C 444.542969 279.191406 471.003906 279.191406 486.878906 279.191406 C 492.742188 279.191406 497.464844 269.75 497.464844 258.023438 C 497.464844 246.296875 492.742188 236.855469 486.878906 236.855469 C 471.003906 236.855469 444.542969 236.855469 444.542969 220.980469 L 444.542969 131.011719 C 444.542969 84.101562 406.777344 46.335938 359.867188 46.335938 Z M 338.699219 46.335938 "/>
</g>
</svg>

<svg xmlns="http://www.w3.org/2000/svg" width="512pt" height="512pt" viewBox="0 0 512 512"><path d="M169.348 46.336c-46.907 0-84.672 37.766-84.672 84.676v89.968c0 15.875-26.461 15.875-42.34 15.875-5.863 0-10.582 9.442-10.582 21.168 0 11.727 4.719 21.168 10.582 21.168 15.879 0 42.34 0 42.34 15.88v89.964c0 46.91 37.765 84.676 84.672 84.676h21.172c5.863 0 10.582-9.441 10.582-21.168 0-11.727-4.72-21.168-10.582-21.168h-21.172c-23.453 0-42.336-18.883-42.336-42.34V295.07c0-18.523-2.645-37.047-21.168-37.047 18.523 0 21.168-18.523 21.168-37.043v-89.968c0-23.453 18.883-42.336 42.336-42.336h21.172c5.863 0 10.582-9.442 10.582-21.168 0-11.73-4.72-21.172-10.582-21.172zm169.351 0c-5.863 0-10.586 9.441-10.586 21.172 0 11.726 4.723 21.168 10.586 21.168h21.168c23.457 0 42.336 18.883 42.336 42.336v89.968c.203 16.227 2.516 36.747 21.172 37.043-19.723 1.434-21.121 21.532-21.172 37.047v89.965c0 23.457-18.879 42.34-42.336 42.34H338.7c-5.863 0-10.586 9.441-10.586 21.168 0 11.727 4.723 21.168 10.586 21.168h21.168c46.91 0 84.676-37.766 84.676-84.676V295.07c0-15.879 26.46-15.879 42.336-15.879 5.863 0 10.586-9.441 10.586-21.168 0-11.726-4.723-21.168-10.586-21.168-15.875 0-42.336 0-42.336-15.875v-89.968c0-46.91-37.766-84.676-84.676-84.676zm0 0" fill="#78909c"/></svg>
